X: 3
T: Banshee, The
C: James McMahon
Z: ceolachan
S: https://thesession.org/tunes/8#setting12368
R: reel
M: 4/4
L: 1/8
K: Gmaj
|:DE|G2 GD EDEG|A^GAB d2 B/c/d|eged BAGA|1 BAGE ED:|2 BAGE ED D2||
|:eaag efge|dBB^A B2 Bd|1 eB B2 eBgB|eBB^A B2 Bd:|2 eged BAGA|BAGE ED||

